svg/face_man_shimmer_outline.svg

<svg xmlns="http://www.w3.org/2000/svg" viewBox="0 0 24 24"><path d="m19.5 1-1.09 2.41L16 4.5l2.41 1.09L19.5 8l1.1-2.41L23 4.5l-2.4-1.09zM12 2C6.5 2 2 6.5 2 12s4.5 10 10 10 10-4.5 10-10c0-1.47-.33-2.87-.9-4.13l-1.24 2.7c.09.47.14.93.14 1.43 0 4.43-3.57 8-8 8s-8-3.57-8-8v-.14a10 10 0 0 0 5.74-5.55 10 10 0 0 0 9.09 3.6L17.96 8h-.46c-2.82 0-5.4-1.5-6.84-3.88.44-.07.88-.12 1.34-.12.5 0 .96.05 1.42.13l2.71-1.22A9.9 9.9 0 0 0 12 2M8.09 5a8 8 0 0 1-3.68 4.5C5.04 7.57 6.37 6 8.09 5M9 11.75A1.25 1.25 0 0 0 7.75 13 1.25 1.25 0 0 0 9 14.25 1.25 1.25 0 0 0 10.25 13 1.25 1.25 0 0 0 9 11.75m6 0A1.25 1.25 0 0 0 13.75 13 1.25 1.25 0 0 0 15 14.25 1.25 1.25 0 0 0 16.25 13 1.25 1.25 0 0 0 15 11.75"/></svg>

<svg xmlns="http://www.w3.org/2000/svg" id="mdi-face-man-shimmer-outline" viewBox="0 0 24 24"><path d="M19.5 1L18.41 3.41L16 4.5L18.41 5.59L19.5 8L20.6 5.59L23 4.5L20.6 3.41L19.5 1M12 2C6.5 2 2 6.5 2 12C2 17.5 6.5 22 12 22C17.5 22 22 17.5 22 12C22 10.53 21.67 9.13 21.1 7.87L19.86 10.57C19.95 11.04 20 11.5 20 12C20 16.43 16.43 20 12 20C7.57 20 4 16.43 4 12C4 11.95 4 11.91 4 11.86A10 10 0 0 0 9.74 6.31C11.61 8.61 14.44 10 17.5 10C17.94 10 18.39 9.97 18.83 9.91L17.96 8C17.81 8 17.65 8 17.5 8C14.68 8 12.1 6.5 10.66 4.12C11.1 4.05 11.54 4 12 4C12.5 4 12.96 4.05 13.42 4.13L16.13 2.91C14.87 2.33 13.47 2 12 2M8.09 5A8 8 0 0 1 4.41 9.5C5.04 7.57 6.37 6 8.09 5M9 11.75A1.25 1.25 0 0 0 7.75 13A1.25 1.25 0 0 0 9 14.25A1.25 1.25 0 0 0 10.25 13A1.25 1.25 0 0 0 9 11.75M15 11.75A1.25 1.25 0 0 0 13.75 13A1.25 1.25 0 0 0 15 14.25A1.25 1.25 0 0 0 16.25 13A1.25 1.25 0 0 0 15 11.75Z" /></svg>
